X: 1456
T: Frank Thompson's Dad's Lancers tune
B: australian traditional tunes wiki
M:2/4
L:1/8
R: Set Tune/March
Q: 1/4=100
K:G
V:1 
|"G"B3c|d3c|Bb ag|"D7"f2ed|A3B|a3g|f>g fe|"G"d>e "D7"dc|!
"G"B3c|d3c|Bb ag|"D7"f2ed|A3B|a3g|fd ef|"G"g2g2||!
|:de "D7"ce|"G"dd/d/ d>d|dg fe|"D7"fed2|
A3c|a3g|1"D7"f>g fe|"G"d>e d/e/c:|2fd ef |"G"g2g||
% abcbook-tune_id 6342d53acdc19ab6a6d696a2


% abcbook-boost 0
% abcbook-tablature 
% abcbook-transpose 
% abcbook-lastupdated 1665324365927
% abcbook-soundfonts 
% abcbook-repeats 1
% NFF Book 2022
% Bush Traditions recording played by Ray Mulligan

